assets/landing/benefits/robust.svg

<svg width="40" height="40" viewBox="0 0 40 40" fill="none" xmlns="http://www.w3.org/2000/svg">
<path d="M36.6479 38.5242V35.4427H38.4159C38.5421 35.4427 38.6632 35.3926 38.7525 35.3035C38.8417 35.2145 38.8919 35.0937 38.8919 34.9677V30.4629C38.8919 30.4005 38.8796 30.3388 38.8557 30.2811C38.8317 30.2235 38.7967 30.1712 38.7525 30.127C38.7083 30.0829 38.6558 30.0479 38.5981 30.0241C38.5403 30.0002 38.4784 29.9879 38.4159 29.9879H33.8208V10.0121H38.4159C38.5422 10.0119 38.6633 9.96162 38.7525 9.87241C38.8418 9.78319 38.8919 9.66229 38.8919 9.53624V5.03232C38.8919 4.90627 38.8418 4.78536 38.7525 4.69615C38.6633 4.60694 38.5422 4.55671 38.4159 4.55648H36.6479V1.47499C36.648 1.41258 36.6358 1.35077 36.6119 1.29309C36.588 1.23541 36.553 1.183 36.5087 1.13887C36.4645 1.09474 36.412 1.05976 36.3542 1.03593C36.2964 1.0121 36.2345 0.999889 36.1719 1H26.4038C26.2774 1.00023 26.1564 1.05046 26.0671 1.13967C25.9779 1.22888 25.9278 1.34978 25.9278 1.47584V4.55733H24.1598C24.0335 4.55733 23.9125 4.60737 23.8232 4.69645C23.7339 4.78553 23.6838 4.90635 23.6838 5.03232V9.53709C23.6838 9.66306 23.7339 9.78388 23.8232 9.87295C23.9125 9.96203 24.0335 10.0121 24.1598 10.0121H28.7549V29.9879H24.1598C24.0973 29.9879 24.0354 30.0002 23.9776 30.0241C23.9199 30.0479 23.8674 30.0829 23.8232 30.127C23.779 30.1712 23.7439 30.2235 23.72 30.2811C23.6961 30.3388 23.6838 30.4005 23.6838 30.4629V34.9677C23.6838 35.0301 23.6961 35.0918 23.72 35.1494C23.7439 35.2071 23.779 35.2594 23.8232 35.3035C23.8674 35.3477 23.9199 35.3826 23.9776 35.4065C24.0354 35.4304 24.0973 35.4427 24.1598 35.4427H25.9278V38.5242C25.9278 38.6502 25.9779 38.7711 26.0671 38.8603C26.1564 38.9495 26.2774 38.9998 26.4038 39H36.1719C36.2982 38.9998 36.4193 38.9495 36.5085 38.8603C36.5978 38.7711 36.6479 38.6502 36.6479 38.5242ZM26.8798 1.94998H35.6959V4.55648H26.8798V1.94998ZM24.6358 5.50731H37.9399V9.0621H24.6358V5.50731ZM29.7068 10.0121H32.8697V29.9879H29.7068V10.0121ZM24.6358 30.9379H37.9399V34.491H24.6358V30.9379ZM26.8798 38.0534V35.4427H35.6959V38.0534H26.8798Z" fill="#03E2B3" stroke="#03E2B3"/>
<path d="M15.7313 10.0121C15.7938 10.0121 15.8557 9.99979 15.9134 9.97592C15.9712 9.95205 16.0237 9.91706 16.0679 9.87295C16.1121 9.82885 16.1471 9.77648 16.171 9.71886C16.195 9.66123 16.2073 9.59946 16.2073 9.53709V5.03232C16.2073 4.96994 16.195 4.90818 16.171 4.85055C16.1471 4.79292 16.1121 4.74056 16.0679 4.69645C16.0237 4.65235 15.9712 4.61736 15.9134 4.59349C15.8557 4.56962 15.7938 4.55733 15.7313 4.55733H13.9633V1.47584C13.9634 1.41339 13.9512 1.35153 13.9273 1.29381C13.9034 1.23608 13.8684 1.18362 13.8242 1.13942C13.78 1.09522 13.7274 1.06016 13.6696 1.03624C13.6118 1.01231 13.5499 1 13.4873 1H3.71999C3.59374 1 3.47267 1.05004 3.38341 1.13912C3.29414 1.2282 3.24399 1.34901 3.24399 1.47499V4.55733H1.476C1.34976 4.55733 1.22868 4.60737 1.13942 4.69645C1.05015 4.78553 1 4.90635 1 5.03232V9.53709C1 9.66306 1.05015 9.78388 1.13942 9.87295C1.22868 9.96203 1.34976 10.0121 1.476 10.0121H6.07108V29.9879H1.476C1.34968 29.9881 1.22861 30.0384 1.13937 30.1276C1.05012 30.2168 1 30.3377 1 30.4638V34.9677C1 35.0937 1.05012 35.2146 1.13937 35.3038C1.22861 35.3931 1.34968 35.4433 1.476 35.4435H3.24399V38.525C3.24399 38.651 3.29414 38.7718 3.38341 38.8609C3.47267 38.95 3.59374 39 3.71999 39H13.4898C13.5524 39 13.6142 38.9877 13.672 38.9638C13.7297 38.94 13.7822 38.905 13.8264 38.8609C13.8706 38.8168 13.9057 38.7644 13.9296 38.7068C13.9535 38.6492 13.9658 38.5874 13.9658 38.525V35.4435H15.7338C15.8602 35.4433 15.9812 35.3931 16.0705 35.3038C16.1597 35.2146 16.2098 35.0937 16.2098 34.9677V30.4638C16.2098 30.3377 16.1597 30.2168 16.0705 30.1276C15.9812 30.0384 15.8602 29.9881 15.7338 29.9879H11.1371V10.0121H15.7313ZM4.19599 1.94998H13.0121V4.55733H4.19599V1.94998ZM1.952 5.50731H15.2561V9.0621H1.952V5.50731ZM13.0121 38.0534H4.19599V35.4427H13.0121V38.0534ZM15.2561 34.491H1.952V30.9379H15.2561V34.491ZM10.1851 29.9871H7.02307V10.0112H10.1851V29.9871Z" fill="#03E2B3" stroke="#03E2B3"/>
</svg>

<svg xmlns="http://www.w3.org/2000/svg" fill="#03E2B3" stroke="#03E2B3" viewBox="0 0 40 40">
  <path d="M36.65 38.52v-3.08h1.77a.48.48 0 0 0 .47-.47v-4.5a.47.47 0 0 0-.47-.48h-4.6V10h4.6a.48.48 0 0 0 .47-.47v-4.5a.48.48 0 0 0-.47-.48h-1.77V1.47a.47.47 0 0 0-.48-.47H26.4a.48.48 0 0 0-.47.48v3.08h-1.77a.48.48 0 0 0-.48.47v4.5a.47.47 0 0 0 .48.48h4.6V30h-4.6a.48.48 0 0 0-.48.47v4.5a.47.47 0 0 0 .48.48h1.77v3.08a.48.48 0 0 0 .47.48h9.77a.48.48 0 0 0 .48-.48ZM26.88 1.95h8.82v2.6h-8.82v-2.6Zm-2.24 3.56h13.3v3.55h-13.3V5.51ZM29.7 10h3.16V30h-3.16V10Zm-5.07 20.93h13.3v3.55h-13.3v-3.55Zm2.24 7.11v-2.6h8.82v2.6h-8.82ZM15.73 10.01a.48.48 0 0 0 .48-.47v-4.5a.47.47 0 0 0-.48-.48h-1.77V1.48A.47.47 0 0 0 13.5 1H3.72a.48.48 0 0 0-.48.47v3.09H1.48a.48.48 0 0 0-.48.47v4.5a.47.47 0 0 0 .48.48h4.6V30h-4.6a.48.48 0 0 0-.48.47v4.5a.48.48 0 0 0 .48.48h1.76v3.09a.47.47 0 0 0 .48.47h9.77a.48.48 0 0 0 .48-.48v-3.08h1.76a.48.48 0 0 0 .48-.47v-4.5a.48.48 0 0 0-.48-.48h-4.6V10h4.6ZM4.2 1.95H13v2.6H4.2v-2.6ZM1.95 5.51h13.3v3.55H1.96V5.51Zm11.06 32.54H4.2v-2.6H13v2.6Zm2.25-3.56H1.96v-3.55h13.3v3.55ZM10.19 30H7.02V10h3.17V30Z"/>
</svg>
